assets/bandsintown/mono.svg

<svg viewBox="0 0 24 24" xmlns="http://www.w3.org/2000/svg"><path d="m6.399 12.8v4.8h12.801v1.6h-14.401v-19.2h-4.799v24h24v-11.2zm4.801-8h-4.801v6.4h4.801zm6.4 0h-4.8v6.4h4.8zm6.4-4.8h-4.8v11.2h4.8z"/></svg>

<svg xmlns="http://www.w3.org/2000/svg" viewBox="0 0 24 24"><path d="M6.399 12.8v4.8H19.2v1.6H4.799V0H0v24h24V12.8zm4.801-8H6.399v6.4H11.2zm6.4 0h-4.8v6.4h4.8zM24 0h-4.8v11.2H24z"/></svg>
